libs/ui/packages/crypto-icons/src/svg/BERA.svg

<svg width="24" height="24" viewBox="0 0 24 24" fill="none" xmlns="http://www.w3.org/2000/svg">
  <path d="M15.9298 11.1545C15.9144 11.1042 15.9037 11.0526 15.8953 11.0005C15.8915 10.9764 15.8871 10.9524 15.882 10.9285C15.871 10.8767 15.8588 10.8252 15.8456 10.7739V10.7738C16.064 10.4295 17.1079 8.63371 15.92 7.4811C14.6016 6.20186 13.0612 7.8786 13.0612 7.8786L13.066 7.88605C12.3736 7.66691 11.6229 7.64118 10.8925 7.87853C10.8925 7.87853 10.8924 7.87853 10.8924 7.87853C10.8834 7.8687 9.34812 6.20562 8.03362 7.4811C6.7187 8.75701 8.1386 10.8212 8.14603 10.832C8.14603 10.832 8.14603 10.8321 8.14603 10.8321C8.1309 10.8806 8.11869 10.9301 8.11064 10.9804C7.96839 11.8638 7 12.1364 7 13.675C7 15.2136 8.01308 16.4792 10.0809 16.4792H10.9294C10.9294 16.4792 10.9294 16.4792 10.9295 16.4792C10.9333 16.4848 11.2826 17.0006 12 17C12.6659 16.9995 13.1057 16.4836 13.1095 16.4792C13.1095 16.4792 13.1095 16.4792 13.1096 16.4792H13.9191C15.9869 16.4792 17 15.2433 17 13.675C17 12.2422 16.1602 11.9072 15.9299 11.1545H15.9298Z" fill="#DEB69A"/>
</svg>

<svg xmlns="http://www.w3.org/2000/svg" width="24" height="24" viewBox="0 0 24 24" fill="none"><path fill="#deb69a" d="M15.93 11.155a1 1 0 0 1-.035-.154l-.013-.072-.036-.155c.218-.344 1.262-2.14.074-3.293-1.318-1.28-2.859.398-2.859.398l.005.007a3.53 3.53 0 0 0-2.174-.007c-.009-.01-1.544-1.673-2.858-.398-1.315 1.276.105 3.34.112 3.351a1 1 0 0 0-.035.148C7.968 11.864 7 12.136 7 13.675s1.013 2.804 3.08 2.804h.85c.003.006.353.522 1.07.521.666 0 1.106-.516 1.11-.52h.81c2.067 0 3.08-1.237 3.08-2.805 0-1.433-.84-1.768-1.07-2.52"/></svg>
